; generated by PrusaSlicer 2.9.0 on 2025-01-15 at 14:43:16 UTC


;
;
; 

; external perimeters extrusion width = 0.45mm
; perimeters extrusion width = 0.45mm
; infill extrusion width = 0.45mm
; solid infill extrusion width = 0.45mm
; top infill extrusion width = 0.40mm
; first layer extrusion width = 0.42mm

; external perimeters extrusion width = 0.45mm
; perimeters extrusion width = 0.45mm
; infill extrusion width = 0.45mm
; solid infill extrusion width = 0.45mm
; top infill extrusion width = 0.40mm
; first layer extrusion width = 0.42mm

M73 P0 R13
M73 Q0 S13
M201 X1000 Y1000 Z200 E5000 ; sets maximum accelerations, mm/sec^2
M203 X200 Y200 Z12 E120 ; sets maximum feedrates, mm / sec
M204 S1250 T1250 ; sets acceleration (S) and retract acceleration (R), mm/sec^2
M205 X8.00 Y8.00 Z0.40 E4.50 ; sets the jerk limits, mm/sec
M205 S0 T0 ; sets the minimum extruding and travel feed rate, mm/sec

; printing object flansch-distanz.stl id:1 copy 0
; stop printing object flansch-distanz.stl id:1 copy 0
; printing object dht22-flansch.stl id:0 copy 0
; stop printing object dht22-flansch.stl id:0 copy 0

;TYPE:Custom
M862.3 P "MK3S" ; printer model check
M862.1 P0.4 ; nozzle diameter check
M115 U3.14.1 ; tell printer latest fw version
G90 ; use absolute coordinates
M83 ; extruder relative mode
M104 S215 ; set extruder temp
M140 S60 ; set bed temp
M190 S60 ; wait for bed temp
M109 S215 ; wait for extruder temp
G28 W ; home all without mesh bed level
G80 X100.955 Y96.2229 W46.8222 H31.3484 ; mesh bed levelling

G1 Z0.2 F720
G1 Y-3 F1000 ; go outside print area
G92 E0
G1 X60 E9 F1000 ; intro line
G1 X100 E12.5 F1000 ; intro line

G92 E0
M221 S95

; Don't change E values below. Excessive value can damage the printer.

M907 E538 ; set extruder motor current
G21 ; set units to millimeters
G90 ; use absolute coordinates
M83 ; use relative distances for extrusion

M900 K0.05 ; Filament gcode LA 1.5
M900 K30 ; Filament gcode LA 1.0




M107
;LAYER_CHANGE
;Z:0.2
;HEIGHT:0.2
G1 E-.8 F2100
G1 Z.6 F720
G1 X103.052 Y98.868 F10800
G1 Z.2 F720
G1 E.8 F2100
M204 S800
;TYPE:Skirt/Brim
;WIDTH:0.42
G1 F1200
G1 X104.868 Y97.052 E.08052
G1 X106.416 Y96.411 E.05253
G1 X143.584 Y96.411 E1.16538
G1 X145.132 Y97.052 E.05253
M73 P1 R13
M73 Q1 S13
G1 X146.948 Y98.868 E.08052
G1 X147.589 Y100.416 E.05253
G1 X147.589 Y109.584 E.28746
G1 X146.948 Y111.132 E.05253
G1 X144.791 Y113.226 E.09426
G1 X123.923 Y127.02 E.78433
G1 X122.716 Y127.383 E.03952
M73 P1 R12
G1 X105.148 Y127.383 E.55083
G1 X103.6 Y126.742 E.05253
G1 X101.784 Y124.926 E.08052
G1 X101.143 Y123.378 E.05253
G1 X101.143 Y114.21 E.28746
G1 X102.421 Y100.216 E.4406
G1 X103.027 Y98.923 E.04477
M204 S1000
;WIPE_START
G1 F8640
G1 X103.052 Y98.868 E-.01395
G1 X104.868 Y97.052 E-.59301
G1 X105.64 Y96.732 E-.19304
;WIPE_END
G1 Z.6 F720
G1 X130.549 Y101.426 F10800
G1 Z.2 F720
G1 E.8 F2100
M204 S800
G1 F1200
G1 X130.855 Y100.45 E.03207
G1 X131.468 Y99.726 E.02974
G1 X132.061 Y99.359 E.02187
G1 X132.828 Y99.149 E.02493
G1 X142.575 Y99.153 E.30561
G1 X143.099 Y99.264 E.01679
G1 X143.627 Y99.504 E.01819
G1 X144.234 Y100.025 E.02508
G1 X144.639 Y100.656 E.02351
G1 X144.851 Y101.428 E.0251
G1 X144.851 Y108.574 E.22406
G1 X144.545 Y109.55 E.03207
M73 Q2 S13
G1 X143.932 Y110.274 E.02974
M73 P2 R12
G1 X143.339 Y110.641 E.02187
G1 X142.572 Y110.851 E.02493
G1 X132.826 Y110.851 E.30558
G1 X131.85 Y110.545 E.03207
G1 X131.126 Y109.932 E.02974
G1 X130.759 Y109.339 E.02187
G1 X130.549 Y108.572 E.02493
G1 X130.549 Y101.486 E.22218
M204 S1000
G1 X130.549 Y101.486 F10800
M73 Q2 S12
G1 X130.926 Y101.486
M204 S800
G1 F1200
G1 X130.926 Y101.455 E.00097
G1 X131.183 Y100.639 E.02682
G1 X131.725 Y100.003 E.0262
G1 X132.19 Y99.714 E.01717
G1 X132.855 Y99.526 E.02167
G1 X142.553 Y99.53 E.30407
G1 X142.997 Y99.627 E.01425
G1 X143.443 Y99.834 E.01542
G1 X143.966 Y100.291 E.02178
G1 X144.285 Y100.786 E.01846
G1 X144.474 Y101.455 E.0218
G1 X144.474 Y108.545 E.2223
G1 X144.217 Y109.361 E.02682
G1 X144.067 Y109.582 E.00837
G1 X143.675 Y109.997 E.0179
G1 X143.21 Y110.286 E.01717
G1 X142.545 Y110.474 E.02167
G1 X132.855 Y110.474 E.30382
G1 X132.039 Y110.217 E.02682
G1 X131.818 Y110.067 E.00837
G1 X131.403 Y109.675 E.0179
G1 X131.114 Y109.21 E.01717
G1 X130.926 Y108.545 E.02167
G1 X130.926 Y101.546 E.21945
M204 S1000
G1 X130.926 Y101.546 F10800
G1 X131.303 Y101.546
M204 S800
G1 F1200
G1 X131.303 Y101.484 E.00194
G1 X131.512 Y100.825 E.02168
G1 X131.983 Y100.28 E.02259
G1 X132.322 Y100.068 E.01254
G1 X132.883 Y99.903 E.01833
G1 X142.531 Y99.907 E.30251
G1 X143.256 Y100.162 E.0241
G1 X143.696 Y100.554 E.01848
G1 X143.931 Y100.92 E.01364
G1 X144.097 Y101.483 E.0184
G1 X144.097 Y108.516 E.22051
G1 X143.888 Y109.175 E.02168
G1 X143.417 Y109.72 E.02259
G1 X143.078 Y109.932 E.01254
G1 X142.517 Y110.097 E.01833
G1 X132.884 Y110.097 E.30204
G1 X132.225 Y109.888 E.02168
G1 X131.68 Y109.417 E.02259
G1 X131.468 Y109.078 E.01254
G1 X131.303 Y108.517 E.01833
G1 X131.303 Y101.606 E.21669
M204 S1000
G1 X131.303 Y101.606 F10800
G1 X131.68 Y101.606
M204 S800
G1 F1200
G1 X131.68 Y101.513 E.00292
G1 X131.843 Y101.007 E.01667
G1 X132.24 Y100.556 E.01884
G1 X132.912 Y100.28 E.02278
G1 X142.509 Y100.284 E.30091
G1 X143.068 Y100.491 E.01869
G1 X143.579 Y101.057 E.02391
G1 X143.72 Y101.512 E.01494
G1 X143.72 Y108.487 E.2187
G1 X143.495 Y109.09 E.02018
G1 X143.16 Y109.444 E.01528
G1 X142.488 Y109.72 E.02278
G1 X132.913 Y109.72 E.30022
G1 X132.31 Y109.495 E.02018
G1 X131.956 Y109.16 E.01528
G1 X131.68 Y108.488 E.02278
G1 X131.68 Y101.666 E.2139
M204 S1000
G1 X131.68 Y101.666 F10800
M73 Q3 S12
G1 X132.057 Y101.666
M204 S800
G1 F1200
G1 X132.057 Y101.544 E.00383
G1 X132.194 Y101.153 E.01299
G1 X132.497 Y100.834 E.01379
G1 X132.944 Y100.657 E.01507
G1 X142.487 Y100.661 E.29921
G1 X142.878 Y100.818 E.01321
M73 P3 R12
G1 X143.147 Y101.073 E.01162
G1 X143.343 Y101.544 E.016
G1 X143.343 Y108.456 E.21672
G1 X143.206 Y108.847 E.01299
G1 X142.903 Y109.166 E.01379
G1 X142.456 Y109.343 E.01507
G1 X132.944 Y109.343 E.29824
G1 X132.553 Y109.206 E.01299
G1 X132.234 Y108.903 E.01379
G1 X132.057 Y108.456 E.01507
G1 X132.057 Y101.726 E.21101
M204 S1000
G1 X132.057 Y101.726 F10800
G1 X132.434 Y101.726
M204 S800
G1 F1200
G1 X132.434 Y101.579 E.00461
G1 X132.511 Y101.366 E.0071
G1 X132.728 Y101.132 E.01001
G1 X132.979 Y101.034 E.00845
G1 X142.435 Y101.034 E.29649
G1 X142.866 Y101.325 E.01631
G1 X142.966 Y101.579 E.00856
G1 X142.966 Y108.421 E.21453
G1 X142.889 Y108.634 E.0071
G1 X142.672 Y108.868 E.01001
G1 X142.421 Y108.966 E.00845
G1 X132.979 Y108.966 E.29605
G1 X132.766 Y108.889 E.0071
G1 X132.532 Y108.672 E.01001
G1 X132.434 Y108.421 E.00845
G1 X132.434 Y101.786 E.20804
M204 S1000
G1 X132.434 Y101.786 F10800
G1 X132.812 Y101.784
M204 S800
G1 F1200
G1 X132.811 Y101.621 E.00511
G1 X132.952 Y101.44 E.00719
G1 X142.448 Y101.44 E.29774
G1 X142.589 Y101.621 E.00719
G1 X142.589 Y108.379 E.21189
G1 X142.448 Y108.56 E.00719
G1 X133.021 Y108.589 E.29558
G1 X132.84 Y108.448 E.00719
G1 X132.812 Y101.844 E.20707
M204 S1000
;WIPE_START
G1 F8640
G1 X132.812 Y101.784 E-.01385
G1 X132.811 Y101.621 E-.03764
G1 X132.952 Y101.44 E-.05298
G1 X135.964 Y101.44 E-.69553
;WIPE_END
G1 Z.6 F720
G1 X122.892 Y113.412 F10800
G1 Z.2 F720
G1 E.8 F2100
M204 S800
G1 F1200
G1 X123.366 Y113.819 E.01959
G1 X123.771 Y114.45 E.02351
G1 X123.983 Y115.222 E.0251
G1 X123.976 Y122.417 E.22559
G1 X123.775 Y123.128 E.02317
G1 X123.544 Y123.553 E.01517
G1 X122.682 Y124.338 E.03656
G1 X121.706 Y124.645 E.03208
G1 X106.16 Y124.645 E.48743
G1 X105.398 Y124.437 E.02477
G1 X104.973 Y124.206 E.01517
G1 X104.188 Y123.344 E.03656
G1 X103.881 Y122.369 E.03205
G1 X103.881 Y115.222 E.22409
G1 X104.09 Y114.46 E.02477
M73 Q4 S12
G1 X104.32 Y114.035 E.01515
G1 X105.182 Y113.25 E.03656
G1 X106.158 Y112.943 E.03208
M73 P4 R12
G1 X121.707 Y112.947 E.48753
G1 X122.231 Y113.058 E.01679
G1 X122.759 Y113.298 E.01819
G1 X122.847 Y113.373 E.00363
M204 S1000
G1 X122.847 Y113.373 F10800
G1 X122.603 Y113.653
M204 S800
G1 F1200
G1 X123.098 Y114.085 E.0206
G1 X123.416 Y114.58 E.01845
G1 X123.606 Y115.249 E.02181
G1 X123.606 Y122.339 E.2223
G1 X123.418 Y123.003 E.02164
G1 X123.228 Y123.346 E.01229
G1 X122.493 Y124.011 E.03108
G1 X121.677 Y124.268 E.02682
G1 X106.187 Y124.268 E.48568
G1 X105.523 Y124.08 E.02164
G1 X105.181 Y123.89 E.01227
G1 X104.515 Y123.156 E.03108
G1 X104.258 Y122.34 E.02682
G1 X104.258 Y115.249 E.22233
G1 X104.446 Y114.585 E.02164
G1 X104.636 Y114.243 E.01227
G1 X105.145 Y113.731 E.02264
G1 X105.371 Y113.577 E.00857
G1 X106.187 Y113.32 E.02682
G1 X121.685 Y113.324 E.48593
G1 X122.129 Y113.422 E.01426
G1 X122.554 Y113.619 E.01469
M204 S1000
G1 X122.554 Y113.619 F10800
G1 X122.388 Y113.956
M204 S800
G1 F1200
G1 X122.828 Y114.349 E.0185
G1 X123.063 Y114.714 E.01361
G1 X123.229 Y115.277 E.0184
G1 X123.229 Y122.311 E.22055
G1 X122.914 Y123.135 E.02766
G1 X122.307 Y123.682 E.02562
G1 X121.648 Y123.891 E.02168
G1 X106.215 Y123.891 E.48389
G1 X105.392 Y123.577 E.02762
G1 X104.844 Y122.969 E.02566
G1 X104.635 Y122.311 E.02165
G1 X104.635 Y115.277 E.22055
G1 X104.95 Y114.454 E.02763
G1 X105.557 Y113.906 E.02564
G1 X106.216 Y113.697 E.02168
G1 X121.663 Y113.701 E.48433
G1 X122.331 Y113.937 E.02221
M204 S1000
G1 X122.331 Y113.937 F10800
G1 X122.2 Y114.285
M204 S800
G1 F1200
G1 X122.711 Y114.851 E.02391
G1 X122.852 Y115.307 E.01497
G1 X122.852 Y122.282 E.2187
G1 X122.711 Y122.739 E.015
G1 X122.221 Y123.29 E.02312
G1 X121.619 Y123.514 E.02014
G1 X106.244 Y123.514 E.48207
G1 X105.787 Y123.373 E.015
M73 Q5 S12
G1 X105.236 Y122.883 E.02312
G1 X105.012 Y122.281 E.02014
M73 P5 R12
G1 X105.012 Y115.307 E.21866
G1 X105.26 Y114.669 E.02146
G1 X105.739 Y114.237 E.02022
G1 X106.245 Y114.074 E.01667
G1 X121.641 Y114.078 E.48273
G1 X122.144 Y114.264 E.01681
M204 S1000
G1 X122.144 Y114.264 F10800
G1 X122.005 Y114.61
M204 S800
G1 F1200
G1 X122.01 Y114.612 E.00017
G1 X122.279 Y114.867 E.01162
G1 X122.475 Y115.338 E.016
G1 X122.475 Y122.25 E.21672
G1 X122.298 Y122.697 E.01507
G1 X121.949 Y123.018 E.01487
G1 X121.588 Y123.137 E.01192
G1 X106.276 Y123.137 E.4801
G1 X105.829 Y122.961 E.01506
G1 X105.508 Y122.611 E.01489
G1 X105.389 Y122.25 E.01192
G1 X105.389 Y115.338 E.21672
G1 X105.566 Y114.891 E.01507
G1 X105.915 Y114.571 E.01485
G1 X106.276 Y114.452 E.01192
G1 X121.619 Y114.455 E.48107
G1 X121.949 Y114.588 E.01116
M204 S1000
G1 X121.949 Y114.588 F10800
G1 X121.718 Y114.93
M204 S800
G1 F1200
G1 X121.998 Y115.119 E.01059
G1 X122.098 Y115.373 E.00856
G1 X122.098 Y122.215 E.21453
G1 X122 Y122.466 E.00845
G1 X121.766 Y122.684 E.01003
G1 X121.553 Y122.76 E.00709
G1 X106.311 Y122.76 E.4779
G1 X106.06 Y122.662 E.00845
G1 X105.843 Y122.428 E.01001
G1 X105.766 Y122.215 E.0071
G1 X105.766 Y115.373 E.21453
G1 X105.864 Y115.122 E.00845
G1 X106.098 Y114.905 E.01001
G1 X106.311 Y114.829 E.00709
G1 X121.567 Y114.829 E.47834
G1 X121.668 Y114.897 E.00382
M204 S1000
G1 X121.668 Y114.897 F10800
G1 X121.58 Y115.234
M204 S800
G1 F1200
G1 X121.721 Y115.415 E.00719
G1 X121.721 Y122.173 E.21189
G1 X121.58 Y122.354 E.00719
G1 X106.353 Y122.383 E.47743
G1 X106.172 Y122.242 E.00719
G1 X106.143 Y115.415 E.21406
G1 X106.284 Y115.234 E.00719
G1 X121.52 Y115.234 E.47771
M204 S1000
;WIPE_START
G1 F8640
M73 P6 R12
M73 Q6 S12
G1 X121.58 Y115.234 E-.01385
G1 X121.721 Y115.415 E-.05298
G1 X121.721 Y118.59 E-.73317
;WIPE_END
G1 Z.6 F720
G1 X118.471 Y110.312 F10800
G1 Z.2 F720
G1 E.8 F2100
M204 S800
G1 F1200
G1 X117.939 Y110.641 E.01961
G1 X117.172 Y110.851 E.02493
G1 X107.426 Y110.851 E.30558
G1 X106.45 Y110.545 E.03207
G1 X105.726 Y109.932 E.02974
G1 X105.359 Y109.339 E.02187
G1 X105.149 Y108.572 E.02493
G1 X105.149 Y101.426 E.22406
G1 X105.455 Y100.45 E.03207
G1 X106.068 Y99.726 E.02974
G1 X106.661 Y99.359 E.02187
G1 X107.428 Y99.149 E.02493
G1 X117.175 Y99.153 E.30561
G1 X117.699 Y99.264 E.01679
G1 X118.227 Y99.504 E.01819
G1 X118.834 Y100.025 E.02508
G1 X119.239 Y100.656 E.02351
G1 X119.451 Y101.428 E.0251
G1 X119.451 Y108.574 E.22406
G1 X119.145 Y109.55 E.03207
G1 X118.532 Y110.274 E.02974
G1 X118.522 Y110.28 E.00037
M204 S1000
G1 X118.522 Y110.28 F10800
G1 X118.275 Y109.997
M204 S800
G1 F1200
G1 X117.81 Y110.286 E.01717
G1 X117.145 Y110.474 E.02167
G1 X107.455 Y110.474 E.30382
G1 X106.639 Y110.217 E.02682
G1 X106.418 Y110.067 E.00837
G1 X106.003 Y109.675 E.0179
G1 X105.714 Y109.21 E.01717
G1 X105.526 Y108.545 E.02167
G1 X105.526 Y101.455 E.2223
G1 X105.783 Y100.639 E.02682
G1 X106.325 Y100.003 E.0262
G1 X106.79 Y99.714 E.01717
G1 X107.455 Y99.526 E.02167
G1 X117.153 Y99.53 E.30407
G1 X117.597 Y99.627 E.01425
G1 X118.043 Y99.834 E.01542
G1 X118.566 Y100.291 E.02178
G1 X118.885 Y100.786 E.01846
G1 X119.074 Y101.455 E.0218
G1 X119.074 Y108.545 E.2223
G1 X118.817 Y109.361 E.02682
G1 X118.667 Y109.582 E.00837
G1 X118.316 Y109.953 E.01601
M204 S1000
G1 X118.316 Y109.953 F10800
G1 X118.03 Y109.706
M204 S800
G1 F1200
G1 X118.017 Y109.72 E.0006
G1 X117.678 Y109.932 E.01254
G1 X117.117 Y110.097 E.01833
G1 X107.484 Y110.097 E.30204
G1 X106.825 Y109.888 E.02168
G1 X106.28 Y109.417 E.02259
G1 X106.068 Y109.078 E.01254
G1 X105.903 Y108.517 E.01833
G1 X105.903 Y101.484 E.22051
G1 X106.112 Y100.825 E.02168
G1 X106.583 Y100.28 E.02259
G1 X106.922 Y100.068 E.01254
G1 X107.483 Y99.903 E.01833
G1 X117.131 Y99.907 E.30251
G1 X117.856 Y100.162 E.0241
G1 X118.296 Y100.554 E.01848
G1 X118.531 Y100.92 E.01364
G1 X118.697 Y101.483 E.0184
G1 X118.697 Y108.516 E.22051
G1 X118.488 Y109.175 E.02168
G1 X118.069 Y109.661 E.02012
M73 P7 R12
M73 Q7 S12
M204 S1000
G1 X118.069 Y109.661 F10800
G1 X117.798 Y109.404
M204 S800
G1 F1200
G1 X117.76 Y109.444 E.00173
G1 X117.088 Y109.72 E.02278
G1 X107.513 Y109.72 E.30022
G1 X106.91 Y109.495 E.02018
G1 X106.556 Y109.16 E.01528
G1 X106.28 Y108.488 E.02278
G1 X106.28 Y101.513 E.2187
G1 X106.443 Y101.007 E.01667
G1 X106.84 Y100.556 E.01884
G1 X107.512 Y100.28 E.02278
G1 X117.109 Y100.284 E.30091
G1 X117.668 Y100.491 E.01869
G1 X118.179 Y101.057 E.02391
G1 X118.32 Y101.512 E.01494
G1 X118.32 Y108.487 E.2187
G1 X118.095 Y109.09 E.02018
G1 X117.839 Y109.36 E.01167
M204 S1000
G1 X117.839 Y109.36 F10800
G1 X117.565 Y109.101
M204 S800
G1 F1200
G1 X117.503 Y109.166 E.00282
G1 X117.056 Y109.343 E.01507
G1 X107.544 Y109.343 E.29824
G1 X107.153 Y109.206 E.01299
G1 X106.834 Y108.903 E.01379
G1 X106.657 Y108.456 E.01507
G1 X106.657 Y101.544 E.21672
G1 X106.794 Y101.153 E.01299
G1 X107.097 Y100.834 E.01379
G1 X107.544 Y100.657 E.01507
G1 X117.087 Y100.661 E.29921
G1 X117.478 Y100.818 E.01321
G1 X117.747 Y101.073 E.01162
G1 X117.943 Y101.544 E.016
G1 X117.943 Y108.456 E.21672
G1 X117.806 Y108.847 E.01299
G1 X117.606 Y109.057 E.00909
M204 S1000
G1 X117.606 Y109.057 F10800
G1 X117.332 Y108.803
M204 S800
G1 F1200
G1 X117.272 Y108.868 E.00277
G1 X117.021 Y108.966 E.00845
G1 X107.579 Y108.966 E.29605
G1 X107.366 Y108.889 E.0071
G1 X107.132 Y108.672 E.01001
G1 X107.034 Y108.421 E.00845
G1 X107.034 Y101.579 E.21453
G1 X107.111 Y101.366 E.0071
G1 X107.328 Y101.132 E.01001
G1 X107.579 Y101.034 E.00845
G1 X117.035 Y101.034 E.29649
G1 X117.466 Y101.325 E.01631
G1 X117.566 Y101.579 E.00856
G1 X117.566 Y108.421 E.21453
G1 X117.489 Y108.634 E.0071
G1 X117.373 Y108.759 E.00535
M204 S1000
G1 X117.373 Y108.759 F10800
G1 X117.074 Y108.527
M204 S800
G1 F1200
G1 X117.048 Y108.56 E.00132
G1 X107.621 Y108.589 E.29558
G1 X107.44 Y108.448 E.00719
G1 X107.411 Y101.621 E.21406
G1 X107.552 Y101.44 E.00719
G1 X117.048 Y101.44 E.29774
G1 X117.189 Y101.621 E.00719
G1 X117.189 Y108.379 E.21189
G1 X117.11 Y108.48 E.00402
M204 S1000
;WIPE_START
G1 F8640
G1 X117.074 Y108.527 E-.01367
G1 X117.048 Y108.56 E-.0097
G1 X113.685 Y108.57 E-.77663
;WIPE_END
G1 Z.6 F720
; printing object dht22-flansch.stl id:0 copy 0
G1 X135.04 Y105.25 F10800
G1 Z.2 F720
M73 P8 R12
M73 Q8 S12
G1 E.8 F2100
M204 S800
;TYPE:Perimeter
;WIDTH:0.419999
G1 F1200
G1 X135.015 Y105.057 E.0061
G1 X135.054 Y104.558 E.01569
G1 X135.193 Y104.077 E.0157
G1 X135.424 Y103.633 E.01569
G1 X135.741 Y103.244 E.01573
G1 X136.225 Y102.867 E.01924
G1 X136.71 Y102.647 E.0167
G1 X137.01 Y102.603 E.00951
;WIDTH:0.386924
G1 X137.31 Y102.559 E.00867
;WIDTH:0.356968
